!!!COM: Beethoven, Ludwig van
!!!CDT: 1770///-1827///
!!!OTL: Piano Sonata no. 9 in E major
!!!OPS: 14
!!!ONM: 1
!!!OMV: 1
!!!OMD: Allegro
**kern	**kern	**dynam
*staff2	*staff1	*staff1
*>[I,A,A,B]	*>[I,A,A,B]	*>[I,A,A,B]
*>norep[I,A,B]	*>norep[I,A,B]	*>norep[I,A,B]
*>I	*>I	*>I
*Ipiano	*Ipiano	*Ipiano
*clefF4	*clefG2	*clefG2
*k[f#c#g#d#]	*k[f#c#g#d#]	*k[f#c#g#d#]
*E:	*E:	*E:
*M4/4	*M4/4	*M4/4
*MM132	*MM132	*MM132
=1-	=1-	=1-
8r	(2b\	p
8E\ 8G#\ 8B\L	.	.
8E\ 8G#\ 8B\	.	.
8E\ 8G#\ 8B\J	.	.
8r	2e\ 2ee\	.
8E\ 8G#\ 8B\L	.	.
8E\ 8G#\ 8B\	.	.
8E\ 8G#\ 8B\J	.	.
=2!|:	=2!|:	=2!|:
*>A	*>A	*>A
8r	2cc#\	.
8E\ 8A\ 8c#\L	.	.
8E\ 8A\ 8c#\	.	.
8E\ 8A\ 8c#\J	.	.
8r	2f#\ 2ff#\)	.
8E\ 8A\ 8c#\L	.	.
8E\ 8A\ 8c#\	.	.
8E\ 8A\ 8c#\J	.	.
=3	=3	=3
8r	(2dd#\	<
8E\ 8F#\ 8A\ 8d#\L	.	.
8E\ 8F#\ 8A\ 8d#\	.	.
8E\ 8F#\ 8A\ 8d#\J	.	.
8r	2b\ 2bb\)	.
8E\ 8F#\ 8A\ 8d#\L	.	.
8E\ 8F#\ 8A\ 8d#\	.	.
8E\ 8F#\ 8A\ 8d#\J	.	.
=4	=4	=4
2.E\ 2.G#\ 2.B\ 2.e\	(4.bb\	>
.	16ccc#\LL	.
.	16ddd#\JJ	.
.	4eee'\)	.
4r	4r	.
=5	=5	=5
2r	(16gg#\LL	.
.	16ee\	.
.	16aa\	.
.	16ff#\JJ	.
.	16bb\LL	.
.	16gg#\	.
.	16ccc#\	.
.	16aa\JJ	.
*clefG2	*	*
(16g#/LL	4bb\)	p
16e/	.	.
16a/	.	.
16f#/JJ	.	.
16b/LL	4r	.
16g#/	.	.
16cc#/	.	.
16a/JJ	.	.
*	*clefF4	*clefF4
=6	=6	=6
4b/)	16G#\LL	.
.	16E\	<
.	16A\	.
.	16F#\JJ	.
4r	16B\LL	.
.	16G#\	.
.	16c#\	.
.	16A\JJ	.
*clefF4	*	*
(16GG#/LL	4B\	.
16EE/	.	.
16AA/	.	.
16FF#/JJ	.	.
16BB/LL	4r	.
16GG#/	.	.
16C#/	.	.
16AA#/JJ)	.	.
*	*clefG2	*clefG2
=7	=7	=7
*^	*^	*
4r	1BB	8r	8r	.
.	.	8B/L	([4.B\	.
8r	.	8g#/	.	.
(8G#/	.	8e/J	.	.
8D#/L	.	8a/L	2B\]	.
8F#/J	.	8f#/	.	.
4A/)	.	8d#/	.	.
.	.	8b/J)	.	.
*v	*v	*	*	*
=8	=8	=8	=8
1B	8r	4r	.
.	(8b/L	.	f
.	8gg#/	8r	.
.	8ee/J	8g#\	.
.	8aan/L	8d#\L	.
.	8ff#/	8f#\J	.
.	8dd#/	4a\	.
.	8bb/J)	.	.
=9	=9	=9	=9
4e\ 4g#\	(4.bb/	2b\	>
(4G#\	.	.	.
.	16aa/LL	.	.
.	16gg#/JJ	.	.
4A\	8ff#/L	2cc#\	.
.	8ee/	.	.
4A#\)	8dd#/	.	.
.	8cc#/J)	.	.
*	*v	*v	*
=10	=10	=10
*^	*^	*
*	*	*	*^	*
(2B/	2r	1b	(4g#/	2.e\	.
.	.	.	4gn/	.	.
4A#/	2BB\	.	2f#/)	.	.
4An/	.	.	.	4d#\	.
*v	*v	*	*	*	*
*	*	*v	*v	*
=11	=11	=11	=11
4E\ 4G#\)	4.b/	2B\ 2e\	p
(4GG#/	.	.	.
.	16a/LL	.	.
.	16g#/JJ	.	.
4AA/	8f#/L	2c#\	.
.	8e/	.	.
4AA#/)	8d#/	.	.
.	8c#/J	.	.
*	*v	*v	*
*	*clefF4	*clefF4
=12	=12	=12
*^	*^	*
*	*	*	*^	*
(2BB/	2r	1B	(4G#/	2.E\	.
.	.	.	4Gn/	.	.
4AA#/	2BBB\	.	2F#/)	.	.
4AAn/)	.	.	.	4D#\	.
*v	*v	*	*	*	*
*	*v	*v	*v	*
=13	=13	=13
8r	(2B\	p
8EE/ 8GG#/L	.	.
8EE/ 8GG#/	.	.
8EE/ 8GG#/J	.	.
8r	2E\ 2e\	.
8EE/ 8GG#/L	.	.
8EE/ 8GG#/	.	.
8EE/ 8GG#/J	.	.
=14	=14	=14
8r	2c#\	.
8EE/ 8AA/L	.	.
8EE/ 8AA/	.	.
8EE/ 8AA/J	.	.
8r	2F#\ 2f#\)	.
8EE/ 8AA#/L	.	.
8EE/ 8AA#/	.	.
8EE/ 8AA#/J	.	.
*	*clefG2	*clefG2
=15	=15	=15
8r	2G#'/ 2g#'/	<
8EE/ 8BB/L	.	.
8EE/ 8BB/	.	.
8EE/ 8BB/J	.	.
8r	2A'/ 2a'/	.
8EE/ 8Cn/L	.	.
8EE/ 8C/	.	.
8EE/ 8C/J	.	.
=16	=16	=16
*^	*	*
2r	8r	2A#'/ 2a#'/	.
.	8EE/ 8C#/L	.	.
.	8EE/ 8C#/	.	.
.	8EE/ 8C#/J	.	.
2Dn/	8EE#\L	2B/ (2b/	f
.	8EE#\	.	.
.	8EE#\	.	.
.	8EE#\J	.	.
=17	=17	=17	=17
*	*	*^	*
2C#/	8FF#\L	4a#/	2A#\	.
.	8FF#\	.	.	.
.	8FF#\	4f#/)	.	.
.	8FF#\J	.	.	.
2BB/ 2G#/	8FF#\L	(2ddn/	4.e#\	p
.	8FF#\	.	.	.
.	8FF#\	.	.	.
.	8FF#\J	.	16f#\LL	.
.	.	.	16g#\JJ	.
=18	=18	=18	=18	=18
2AA#/ 2F#/	8FF#\L	4cc#/	2c#\	.
.	8FF#\	.	.	.
.	8FF#\	4a#/)	.	.
.	8FF#\J	.	.	.
2Dn/ 2G#/	8FF#\L	(2b/	2B\ 2e#\	f
.	8FF#\	.	.	.
.	8FF#\	.	.	.
.	8FF#\J	.	.	.
=19	=19	=19	=19	=19
2C#/ 2F#/	8FF#\L	4a#/	2A#\	.
.	8FF#\	.	.	.
.	8FF#\	4f#/)	.	.
.	8FF#\J	.	.	.
2BB/ 2G#/	8FF#\L	(2ddn/	4.e#\	p
.	8FF#\	.	.	.
.	8FF#\	.	.	.
.	8FF#\J	.	16f#\LL	.
.	.	.	16g#\JJ	.
=20	=20	=20	=20	=20
2AA#/ 2F#/	8FF#\L	4cc#/	2c#\	.
.	8FF#\	.	.	.
.	8FF#\	4a#/)	.	.
.	8FF#\J	.	.	.
2BB/ 2Dn/ 2G#/	8FF#\L	2g#/ (2ee#/	4.b\	.
.	8FF#\	.	.	.
.	8FF#\	.	.	.
.	8FF#\J	.	16cc#\LL	.
.	.	.	16ddn\JJ	.
=21	=21	=21	=21	=21
4C#/ 4F#/	4FF#\ 4AA#\	4ff#/)	4a#\ 4cc#\	f
4r	4r	4r	4r	.
4FF#'/ 4F#'/	4r	4r	4A#'/ 4c#'/ 4f#'/	.
4r	4r	4r	4r	.
*	*	*v	*v	*
=22	=22	=22	=22
4AA#'/ 4C#'/ 4F#'/	4FFF#\ 4FF#\	4r	.
4r	4r	4r	.
2r	2r	(8ff#\L	p
.	.	8ee\	.
.	.	8dd#\	.
.	.	8cc#\J)	.
*v	*v	*	*
=23	=23	=23
1r	2b\	.
.	(4b#'\	.
.	4cc#'\	.
=24	=24	=24
1r	4cc##'\	.
.	4dd#'\	.
.	4ee'\	.
.	4ff#'\)	.
=25	=25	=25
*	*^	*
2r	(4ff##/	2r	.
.	2gg#^/	.	.
*clefG2	*	*	*
2B#/ 2d#/	.	[2g#\	<
.	[4ff#/	.	.
=26	=26	=26	=26
2c#/ 2e/	4ff#/]	2g#\]	>
.	4ee/)	.	.
!	!.	!(dd#q/LLL	!.
!	!.	!eeq/	!.
!	!.	!ff#q/JJJ	!.
2r	2r	(8ee\L)	.
.	.	8dd#\	.
.	.	8cc#\	.
.	.	8b\J)	.
*	*v	*v	*
=27	=27	=27
1r	2a#\	.
.	(4b'\	.
.	4b#'\	.
=28	=28	=28
1r	4cc#'\	.
.	4cc##'\	.
.	4dd#'\	.
.	4ee'\)	.
*clefF4	*	*
=29	=29	=29
*	*^	*
2r	(4ee#/	2r	.
.	2ff#/	.	.
2A#\ 2c#\	.	[2f#\	<
.	[4een/	.	.
=30	=30	=30	=30
2B\ 2d#\	4ee/]	2f#\]	>
.	4dd#/)	.	p
*clefG2	*	*	*
(8f#/L	2r	2r	.
8e/	.	.	.
8d#/	.	.	.
8c#/J)	.	.	.
*	*v	*v	*
=31	=31	=31
(2B/	2r	.
*	*clefF4	*clefF4
4B#/	(8F#\L	p
.	8E\	.
4c#/)	8D#\	.
.	8C#\J)	.
=32	=32	=32
(4c##/	4BB#/	.
4d#/	4r	.
*	*clefG2	*clefG2
4e/	(8ff#\L	.
.	8ee\	.
4f#/)	8dd#\	.
.	8cc#\J)	.
=33	=33	=33
*^	*	*
(4f##/	1G#	2b#\	<
2g#/	.	.	.
.	.	[2b#\ [2dd#\ [2aa\	>
[4f#/	.	.	.
=34	=34	=34	=34
4f#/]	2c#\	4b#\] 4dd#\] 4aa\]	.
4e/)	.	4cc#\ 4ee\ 4gg#\	.
(8e/L	2r	2r	.
8d#/	.	.	.
8c#/	.	.	.
8B/J)	.	.	.
*v	*v	*	*
*clefF4	*	*
=35	=35	=35
(2A#\	2r	.
*	*clefF4	*clefF4
4B\	(8E/L	.
.	8D#/	.
4B#\	8C#/	.
.	8BB/J)	.
=36	=36	=36
4c#\	4AA#/	.
4d#\	4r	.
*	*clefG2	*clefG2
4e\	8ee\L	.
.	8dd#\	.
[4e#\)	8cc#\	.
.	8b\J	.
=37	=37	=37
*^	*	*
(4e#/]	1F#	2a#\	<
2f#/	.	.	.
.	.	[2a#\ [2cc#\ [2ggn\	>
[4en/)	.	.	.
=38	=38	=38	=38
*	*	*^	*
4e/]	(2B\	2.r	4a#\] 4cc#\] (4ggn\]	.
4d#/)	.	.	4b\ 4dd#\ 4ff#\)	.
4B/	8D#\L	.	4r	.
.	8F#\	.	.	.
4B/	8D#\	4ff#/	4b\	p
.	8F#\J	.	.	.
=39	=39	=39	=39	=39
(2c#/	8E\L	4.ff#/	(2a#\	.
.	8F#\	.	.	.
.	8E\	.	.	.
.	8F#\J	8aa#/	.	.
4B/)	8D#\L	4bb/	4b\)	.
.	8F#\	.	.	.
4B/	8D#\	4ff#/	4b\	.
.	8F#\J	.	.	.
=40	=40	=40	=40	=40
2c#/	8E\L	4.ff#/	(2a#\	.
.	8F#\	.	.	.
.	8E\	.	.	.
.	8F#\J	8aa#/	.	.
4B/	8D#\L	4bb'/	4b\)	.
.	8F#\	.	.	.
4An/	8D#\	4r	4b#\ (4bb#\	.
.	8F#\J	.	.	.
*	*	*v	*v	*
=41	=41	=41	=41
8G#/L	4E\	4cc#\ 4ccc#\	.
8c#/	.	.	.
8G#/	4E\	4dd#\ 4ddd#\	.
8c#/J	.	.	.
8A#/L	4F#\	4ee\ 4eee\	.
8c#/	.	.	.
8A#/	4F#\	4ff#\ 4fff#\)	.
8c#/J	.	.	.
=42	=42	=42	=42
8B/L	2.BB\	2ee\ (2eee\	.
8F#/	.	.	.
8B/	.	.	.
8F#/J	.	.	.
8B/L	.	4dd#\ 4ddd#\)	.
8F#/J	.	.	.
4B/	8D#\L	4b\ 4ff#\	.
.	8F#\J	.	.
=43	=43	=43	=43
*	*	*^	*
2c#/	8E\L	(4.ff#/	2a#\	.
.	8F#\	.	.	.
.	8E\	.	.	.
.	8F#\J	8aa#/	.	.
4B/	8D#\L	4bb'/)	4b\	.
.	8F#\	.	.	.
4B/	8D#\	4ff#/	4b\	.
.	8F#\J	.	.	.
=44	=44	=44	=44	=44
2c#/	8E\L	(4.ff#/	2a#\	.
.	8F#\	.	.	.
.	8E\	.	.	.
.	8F#\J	8aa#/	.	.
4B/	8D#\L	4bb'/)	4b\	.
.	8F#\	.	.	.
4An/	8D#\	4r	4b#\ (4bb#\	.
.	8F#\J	.	.	.
*	*	*v	*v	*
=45	=45	=45	=45
8G#/L	4E\	4cc#\ 4ccc#\	.
8c#/	.	.	.
8G#/	4E\	4dd#\ 4ddd#\	.
8c#/J	.	.	.
8c#/L	4F#\	4ee\ 4eee\	.
8e/	.	.	.
8c#/	4F#\	4a#\ 4aa#\)	.
8e/J	.	.	.
=46	=46	=46	=46
*	*	*^	*
4B/	4BB\	4b\ 4bb\	4r	.
4r	2.r	4d#/ (4f#/	2B\	.
4r	.	[2e/ [2gn/)	.	.
8r	.	.	(4A#\	.
24FF#/LL	.	.	.	.
24GG#/	.	.	.	.
24AA#/JJ	.	.	.	.
*v	*v	*	*	*
*	*v	*v	*
=47	=47	=47
*	*^	*
4BB/	4e/] 4g/]	2.B\)	f
4r	4d#/ (4f#/	.	.
4r	[2e/ [2g#/)	.	.
8r	.	(4A#\	.
24FF#/LL	.	.	.
24GG#/	.	.	.
24AA#/JJ	.	.	.
*	*v	*v	*
=48	=48	=48
*	*^	*
4BB/	4e/] 4g#/]	2.B\)	f
4r	4d#/ (4f#/	.	.
4r	[2e/ [2gn/)	.	.
8r	.	(4A#\	.
24FF#/LL	.	.	.
24GG#/	.	.	.
24AA#/JJ	.	.	.
*	*v	*v	*
=49	=49	=49
*	*^	*
4BB/	4e/] 4g/]	2.B\)	f
4r	4d#/ (4f#/	.	.
4r	[2e/ [2g#/)	.	.
8r	.	(4A#\	.
24FF#/LL	.	.	.
24GG#/	.	.	.
24AA#/JJ	.	.	.
*	*v	*v	*
=50	=50	=50
*	*^	*
4BB/	4e/] 4g#/]	4B\)	f
4BB'\ 4F#'\	4d#'/ 4f#'/	2.r	p
4C#'\ 4F#'\	4e'/ 4a#'/	.	.
4D#'\ 4F#'\	4f#'/ 4b'/	.	.
=51	=51	=51	=51
2E\ 2G#\ 2c#\	(4.dd#/	2e\ 2g#\	.
.	8cc#/)	.	.
4F#'\ 4d#'\	4b'/	4f#\	.
4F#'\ 4c#'\	4a#'/	4f#\	.
=52	=52	=52	=52
4r	4r	4f#\	<
4D#\ 4B\	4b'/	4f#\	.
4C#'\ 4A#'\	4cc#'/	4f#\	.
4BB'\ 4B'\	4dd#'/	4f#\	.
=53	=53	=53	=53
*^	*	*	*
(4.d#/	2E\	(4.ff#/	2g#\	f
8c#/)	.	8ee/)	.	.
4B'/	4F#\	4dd#'/	4f#\	.
4A#'/	4F#\	4cc#'/	4f#\	.
*v	*v	*	*	*
*	*v	*v	*
=54	=54	=54
4r	4f#'\ 4ff#'\	ff
4D#'\ 4F#'\ 4B'\	4f#'\ 4b'\ 4ff#'\	.
4C#'\ 4E'\ 4A#'\	4f#'\ 4a#'\ 4cc#'\ 4ff#'\	.
4BB'\ 4D#'\ 4B'\	4f#'\ 4b'\ 4dd#'\ 4ff#'\	.
=55	=55	=55
4EE/ 4GG#/ 4C#/ 4E/	4f##\ (4ff##\	.
4r	4g#'\ 4gg#'\)	.
2r	2r	.
*	*clefF4	*clefF4
=56	=56	=56
4FF#'/	4r	p
4r	4E'\ 4A#'\	.
2r	2r	.
=57	=57	=57
(2BBB/	8r	.
.	8BB\ 8D#\ 8B\L	pp
.	8BB\ 8D#\ 8B\	.
.	8BB\ 8D#\ 8B\J	.
2EE/	8r	.
.	8BB\ 8G#\ 8B\L	.
.	8BB\ 8G#\ 8B\	.
.	8BB\ 8G#\ 8B\J	.
=58	=58	=58
2DD#/	8r	.
.	8BB\ 8F#\ 8B\L	.
.	8BB\ 8F#\ 8B\	.
.	8BB\ 8F#\ 8B\J	.
2GG#/	8r	.
.	8BB\ 8E\ 8B\L	.
.	8BB\ 8E\ 8B\	.
.	8BB\ 8E\ 8B\J	.
=59	=59	=59
*	*^	*
2FF#/	2r	8r	.
.	.	8BB\ 8D#\ 8B\L	.
.	.	8BB\ 8D#\ 8B\	.
.	.	8BB\ 8D#\ 8B\J	.
2EE/	8r	8r	.
.	8C#/ 8A#/ 8B/L	8BB\L	.
.	8C#/ 8A#/ 8B/	8BB\	.
.	8C#/ 8A#/ 8B/J	8BB\J	.
=60	=60	=60	=60
2DD#/	2r	8r	.
.	.	8BB\ 8B\L	.
.	.	8BB\ 8B\	.
.	.	8BB\ 8B\J	.
2BBB/)	8r	8r	.
.	8D#/ 8An/ 8B/L	8BB\L	.
.	8D#/ 8A/ 8B/	8BB\	.
.	8D#/ 8A/ 8B/J	8BB\J	.
*	*v	*v	*
*	*clefG2	*clefG2
=61	=61	=61
8EE/	(2b\	p
8E\ 8G#\ 8B\L	.	.
8E\ 8G#\ 8B\	.	.
8E\ 8G#\ 8B\J	.	.
8r	2e\ 2ee\	.
8E\ 8G#\ 8B\L	.	.
8E\ 8G#\ 8B\	.	.
8E\ 8G#\ 8B\J	.	.
=62:|!	=62:|!	=62:|!
*>B	*>B	*>B
8r	2ccn\	.
8E\ 8A\ 8cn\L	.	.
8E\ 8A\ 8c\	.	.
8E\ 8A\ 8c\J	.	.
8r	2fn\ 2ffn\)	.
8E\ 8A\ 8c\L	.	.
8E\ 8A\ 8c\	.	.
8E\ 8A\ 8c\J	.	.
=63	=63	=63
8r	2b'\ 2ffn'\	<
8Dn\ 8Fn\ 8A\ 8B\L	.	.
8D\ 8F\ 8A\ 8B\	.	.
8D\ 8F\ 8A\ 8B\J	.	.
8r	2b'\ 2bb'\	.
8D\ 8F\ 8A\ 8B\L	.	.
8D\ 8F\ 8A\ 8B\	.	.
8D\ 8F\ 8A\ 8B\J	.	.
=64	=64	=64
8r	2ddn'\ 2dddn'\	.
8Dn\ 8Fn\ 8G#\ 8B\L	.	.
8D\ 8F\ 8G#\ 8B\	.	.
8D\ 8F\ 8G#\ 8B\J	.	.
8r	2ffn'\ 2fffn'\	.
8D\ 8F\ 8G#\ 8B\L	.	.
8D\ 8F\ 8G#\ 8B\	.	.
8D\ 8F\ 8G#\ 8B\J	.	.
=65	=65	=65
16Cn\LL	2.ee\ (2.eee\	.
16E\	.	.
16A\	.	.
16cn\JJ	.	.
16C\LL	.	.
16E\	.	.
16A\	.	.
16c\JJ	.	.
16C\LL	.	.
16E\	.	.
16A\	.	.
16c\JJ	.	.
16C\LL	8ddn\ 8dddn\L	.
16E\	.	.
16A\	8ccn\ 8cccn\J)	.
16c\JJ	.	.
=66	=66	=66
16Cn\LL	8b\ (8bb\L	.
16E\	.	.
16A\	8a\ 8aa\	.
16cn\JJ	.	.
16C\LL	8g#\ 8gg#\	.
16E\	.	.
16A\	8a\ 8aa\J	.
16c\JJ	.	.
16C\LL	8g#\ 8gg#\L	.
16E\	.	.
16A\	8a\ 8aa\	.
16c\JJ	.	.
16C\LL	8b\ 8bb\	.
16E\	.	.
16A\	8a\ 8aa\J)	.
16c\JJ	.	.
=67	=67	=67
16Dn\LL	2.a\ (2.aa\	.
16Fn\	.	.
16A\	.	.
16cn\JJ	.	.
16D\LL	.	.
16F\	.	.
16A\	.	.
16c\JJ	.	.
16D\LL	.	.
16F\	.	.
16A\	.	.
16c\JJ	.	.
16D\LL	8ddn\ 8dddn\L	.
16F\	.	.
16A\	8ccn\ 8cccn\J)	.
16c\JJ	.	.
=68	=68	=68
16Dn\LL	8b\ (8bb\L	.
16Fn\	.	.
16A\	8a\ 8aa\	.
16cn\JJ	.	.
16D\LL	8g#\ 8gg#\	.
16F\	.	.
16A\	8a\ 8aa\J	.
16c\JJ	.	.
16D\LL	8g#\ 8gg#\L	.
16F\	.	.
16A\	8a\ 8aa\	.
16c\JJ	.	.
16D\LL	8b\ 8bb\	.
16F\	.	.
16A\	8a\ 8aa\J)	.
16c\JJ	.	.
=69	=69	=69
16E\LL	[2a\ [2aa\	<
16A\	.	.
16cn\	.	.
16e\JJ	.	.
16E\LL	.	.
16A\	.	.
16c\	.	.
16e\JJ	.	.
16E\LL	8a\] 8aa\L]	.
16A\	.	.
16c\	8ee\ (8eee\	.
16e\JJ	.	.
16E\LL	8ddn\ 8dddn\	.
16A\	.	.
16c\	8ccn\ 8cccn\J	.
16e\JJ	.	.
=70	=70	=70
16E\LL	8b\ 8bb\L	.
16A\	.	.
16cn\	8a\ 8aa\	.
16e\JJ	.	.
16E\LL	8g#\ 8gg#\	.
16A\	.	.
16c\	8a\ 8aa\J	.
16e\JJ	.	.
16E\LL	8g#\ 8gg#\L	.
16A\	.	.
16c\	8a\ 8aa\	.
16e\JJ	.	.
16E\LL	8b\ 8bb\	.
16A\	.	.
16c\	8a\ 8aa\J)	.
16e\JJ	.	.
=71	=71	=71
16Fn\LL	2.a\ 2.aa\	p
16A\	.	.
16cn\	.	.
16dn\JJ	.	.
16F\LL	.	.
16A\	.	.
16c\	.	.
16d\JJ	.	.
16F\LL	.	.
16A\	.	.
16c\	.	.
16d\JJ	.	.
16F\LL	8g#\ (8gg#\L	.
16A\	.	.
16c\	8a\ 8aa\J	.
16d\JJ	.	.
=72	=72	=72
16F#\LL	8g#\ 8gg#\L	.
16A\	.	.
16cn\	8a\ 8aa\	.
16dn\JJ	.	.
16F#\LL	8b\ 8bb\	.
16A\	.	.
16c\	8a\ 8aa\J	.
16d\JJ	.	.
16F#\LL	8g#\ 8gg#\L	.
16A\	.	.
16c\	8a\ 8aa\	.
16d\JJ	.	.
16F#\LL	8b\ 8bb\	.
16A\	.	.
16c\	8ccn\ 8cccn\J)	.
16d\JJ	.	.
=73	=73	=73
16Gn\LL	2.ccn\ (2.cccn\	.
16cn\	.	.
16e\	.	.
16gn\JJ	.	.
16G\LL	.	.
16c\	.	.
16e\	.	.
16g\JJ	.	.
16G\LL	.	.
16c\	.	.
16e\	.	.
16g\JJ	.	.
16G\LL	8ddn\ 8dddn\L	.
16c\	.	.
16e\	8ee\ 8eee\J)	.
16g\JJ	.	.
=74	=74	=74
16GGn\LL	4ee\ (4eee\	.
16Dn\	.	.
16Fn\	.	.
16Gn\JJ	.	.
16GG\LL	2ffn\ 2fffn\	.
16D\	.	.
16F\	.	.
16G\JJ	.	.
16GG\LL	.	.
16D\	.	.
16F\	.	.
16G\JJ	.	.
16GG\LL	4b\ 4bb\)	.
16D\	.	.
16F\	.	.
16G\JJ	.	.
=75	=75	=75
16Cn\LL	2.ccn\ 2.cccn\	p
16E\	.	.
16Gn\	.	.
16cn\JJ	.	.
16C\LL	.	.
16E\	.	.
16G\	.	.
16c\JJ	.	.
16C\LL	.	.
16E\	.	.
16G\	.	.
16c\JJ	.	.
16C\LL	8gn\ (8ggn\L	.
16E\	.	.
16G\	8fn\ 8ffn\J)	.
16c\JJ	.	.
=76	=76	=76
16Cn\LL	8fn\ (8ffn\L	.
16E\	.	.
16Gn\	8e\ 8ee\	.
16cn\JJ	.	.
16C\LL	8d#\ 8dd#\	.
16E\	.	.
16G\	8e\ 8ee\J	.
16c\JJ	.	.
16C\LL	8d#\ 8dd#\L	.
16E\	.	.
16G\	8e\ 8ee\	.
16c\JJ	.	.
16C\LL	8f\ 8ff\	.
16E\	.	.
16G\	8e\ 8ee\J)	.
16c\JJ	.	.
=77	=77	=77
16BB\LL	2.e\ 2.ee\	pp
16E\	.	.
16Gn\	.	.
16B\JJ	.	.
16BB\LL	.	.
16E\	.	.
16G\	.	.
16B\JJ	.	.
16BB\LL	.	.
16E\	.	.
16G\	.	.
16B\JJ	.	.
16BB\LL	8gn\ (8ggn\L	.
16E\	.	.
16G\	8f#\ 8ff#\J)	.
16B\JJ	.	.
=78	=78	=78
16BB\LL	8f#\ (8ff#\L	.
16E\	.	.
16Gn\	8e\ 8ee\	.
16B\JJ	.	.
16BB\LL	8d#\ 8dd#\	.
16E\	.	.
16G\	8e\ 8ee\J	.
16B\JJ	.	.
16BB\LL	8d#\ 8dd#\L	.
16E\	.	.
16G\	8e\ 8ee\	.
16B\JJ	.	.
16BB\LL	8f#\ 8ff#\	.
16E\	.	.
16G\	8e\ 8ee\J)	.
16B\JJ	.	.
=79	=79	=79
16AA#\LL	2.e\ (2.ee\	<
16E\	.	.
16Gn\	.	.
16c#\JJ	.	.
16AA#\LL	.	.
16E\	.	.
16G\	.	.
16c#\JJ	.	.
16AA#\LL	.	.
16E\	.	.
16G\	.	.
16c#\JJ	.	.
16AA#\LL	4ee\ 4eee\)	.
16E\	.	.
16G\	.	.
16c#\JJ	.	.
=80	=80	=80
16AA#\LL	[2ee\ [2eee\	.
16E\	.	.
16Gn\	.	.
16c#\JJ	.	.
16AA#\LL	.	.
16E\	.	.
16G\	.	.
16c#\JJ	.	.
16AA#\LL	8ee\] 8eee\L]	.
16E\	.	.
16G\	8gn\ (8ggn\	.
16c#\JJ	.	.
16AA#\LL	8f#\ 8ff#\	.
16E\	.	.
16G\	8e\ 8ee\J)	.
16c#\JJ	.	.
=81	=81	=81
*^	*	*
2BB/	1BB	8d#/ 8dd#/	p
.	.	8B/ 8d#/ 8b/L	.
.	.	8B/ 8d#/ 8b/	.
.	.	8B/ 8d#/ 8b/J	.
2E/	.	8r	.
.	.	8B/ 8gn/ 8b/L	.
.	.	8B/ 8g/ 8b/	.
.	.	8B/ 8g/ 8b/J	.
=82	=82	=82	=82
2D#/	1BB	8r	.
.	.	8B/ 8f#/ 8b/L	.
.	.	8B/ 8f#/ 8b/	.
.	.	8B/ 8f#/ 8b/J	.
2Gn/	.	8r	.
.	.	8B/ 8e/ 8b/L	.
.	.	8B/ 8e/ 8b/	.
.	.	8B/ 8e/ 8b/J	.
=83	=83	=83	=83
*	*	*^	*
8F#/	8BB\	(2b/	8r	.
8B\L	4.r	.	8d#\L	.
8B\	.	.	8d#\	.
8B\J	.	.	8d#\J	.
8r	2r	2ee/	8r	.
8B\L	.	.	8e\ 8g#\L	.
8B\	.	.	8e\ 8g#\	.
8B\J	.	.	8e\ 8g#\J	.
*v	*v	*	*	*
=84	=84	=84	=84
8r	2dd#/	8r	.
8B\L	.	8d#\ 8f#\L	.
8B\	.	8d#\ 8f#\	.
8B\J	.	8d#\ 8f#\J	.
8r	2a#/)	8r	.
8B\L	.	8c#\ 8e\L	.
8B\	.	8c#\ 8e\	.
8B\J	.	8c#\ 8e\J	.
*	*v	*v	*
=85	=85	=85
*^	*	*
2BB/	([1BB	8r	.
.	.	8B/ 8d#/ 8b/L	.
.	.	8B/ 8d#/ 8b/	.
.	.	8B/ 8d#/ 8b/J	.
2E/	.	8r	.
.	.	8B/ 8gn/ 8b/L	.
.	.	8B/ 8g/ 8b/	.
.	.	8B/ 8g/ 8b/J	.
=86	=86	=86	=86
2D#/	1BB]	8r	.
.	.	8B/ 8f#/ 8b/L	.
.	.	8B/ 8f#/ 8b/	.
.	.	8B/ 8f#/ 8b/J	.
2Gn/	.	8r	.
.	.	8B/ 8e/ 8b/L	.
.	.	8B/ 8e/ 8b/	.
.	.	8B/ 8e/ 8b/J	.
=87	=87	=87	=87
*	*	*^	*
8F#/)	8BB\	2b/	8r	.
8B\L	4.r	.	8d#\L	.
8B\	.	.	8d#\	.
8B\J	.	.	8d#\J	.
8r	2r	2ee/	8r	.
8B\L	.	.	8e\ 8gn\L	.
8B\	.	.	8e\ 8g\	.
8B\J	.	.	8e\ 8g\J	.
*v	*v	*	*	*
=88	=88	=88	=88
8r	2dd#/	8r	.
8B\L	.	8d#\ 8f#\L	.
8B\	.	8d#\ 8f#\	.
8B\J	.	8d#\ 8f#\J	.
8r	2a#/	8r	.
8B\L	.	8c#\ 8e\L	.
8B\	.	8c#\ 8e\	.
8B\J	.	8c#\ 8e\J	.
=89	=89	=89	=89
8r	(2b/	8r	.
8BB/L	.	8B\ 8d#\L	.
8BB/	.	8B\ 8d#\	.
8BB/J	.	8B\ 8d#\J	.
8r	2an/	8r	>
8BB/L	.	8c#\ 8e\L	.
8BB/	.	8c#\ 8e\	.
8BB/J	.	8c#\ 8e\J	.
=90	=90	=90	=90
8r	2g#/	8r	.
8BBB/ 8BB/L	.	8B\ 8e\L	.
8BBB/ 8BB/	.	8B\ 8e\	.
8BBB/ 8BB/J	.	8B\ 8e\J	.
8r	2f#/)	8r	.
8BBB/ 8BB/L	.	8A\ 8d#\L	.
8BBB/ 8BB/	.	8A\ 8d#\	.
8BBB/ 8BB/J	.	8A\ 8d#\J	.
*	*v	*v	*
=91	=91	=91
16r	2B/ 2e/ 2g#/ 2b/	f
(16EE/LL	.	.
16FF#/	.	.
16GG#/JJ	.	.
16AA/LL	.	.
16BB/	.	.
16C#/	.	.
16D#/JJ	.	.
16E\LL	2e/ 2g#/ 2b/ 2ee/	.
16F#\	.	.
16G#\	.	.
16A\JJ	.	.
16B\LL	.	.
16c#\	.	.
16d#\	.	.
16e\JJ)	.	.
=92	=92	=92
16r	2a\ 2cc#\	.
(16EE/LL	.	.
16FF#/	.	.
16GG#/JJ	.	.
16AA/LL	.	.
16BB/	.	.
16C#/	.	.
16D#/JJ	.	.
16E\LL	2a\ 2cc#\ 2ff#\	.
16F#\	.	.
16G#\	.	.
16A\JJ	.	.
16B\LL	.	.
16c#\	.	.
16d#\)	.	.
16e\JJ	.	.
=93	=93	=93
*	*^	*
16r	2b/ 2dd#/	2a\	.
16A\LL	.	.	.
16B\	.	.	.
16c#\	.	.	.
16d#\JJ	.	.	.
(16E\LL	.	.	.
16F#\	.	.	.
16G#\JJ	.	.	.
*clefG2	*	*	*
16e/LL	4bb'/	4ff#\ 4aa\	.
16f#/	.	.	.
16g#/	.	.	.
16a/JJ	.	.	.
16b\LL	4bb'/	4ff#\ 4aa\	.
16cc#\	.	.	.
16ddn\	.	.	.
16dd#\JJ)	.	.	.
=94	=94	=94	=94
2.ee\	(4.bb/	2.gg#\	>
.	16ccc#/LL	.	.
.	16ddd#/JJ)	.	.
.	4eee'/	.	.
4r	4r	4r	.
*	*v	*v	*
=95	=95	=95
2r	(16gg#\LL	p
.	16ee\	.
.	16aa\	.
.	16ff#\JJ	.
.	16bb\LL	.
.	16gg#\	.
.	16ccc#\	.
.	16aa\JJ	.
(16g#/LL	4bb\)	.
16e/	.	.
16a/	.	.
16f#/JJ	.	.
16b/LL	4r	.
16g#/	.	.
16cc#/	.	.
16a/JJ	.	.
*	*clefF4	*clefF4
=96	=96	=96
4b/)	16G#\LL	.
.	16E\	.
.	16A\	.
.	16F#\JJ	.
4r	16B\LL	.
.	16G#\	.
.	16c#\	.
.	16A\JJ	.
*clefF4	*	*
(16GG#/LL	4B\	<
16EE/	.	.
16AA/	.	.
16FF#/JJ	.	.
16BB/LL	4r	.
16GG#/	.	.
16C#/	.	.
16AA#/JJ)	.	.
*	*clefG2	*clefG2
=97	=97	=97
*^	*^	*
4r	1BB	8r	8r	.
.	.	(8B/L	[4.B\	.
8r	.	8g#/	.	.
(8G#/	.	8e/J	.	.
8D#/L	.	8a/L	2B\]	.
8F#/J	.	8f#/	.	.
4A/)	.	8d#/	.	.
.	.	8b/J)	.	.
*v	*v	*	*	*
=98	=98	=98	=98
1B	8r	8r	.
.	(8b/L	4b\	.
.	8gg#/	.	.
.	8ee/J	8g#\	.
.	8aan/L	8d#\L	.
.	8ff#/	8f#\J	.
.	8dd#/	4a\	.
.	[8bb/J)	.	.
=99	=99	=99	=99
4c#\ 4e\	(4.bb/]	2b\	.
(4G#\	.	.	.
.	16aa/LL	.	.
.	16gg#/JJ	.	.
4A\	8ff#/L	2cc#\	.
.	8ee/	.	.
4A#\)	8dd#/	.	.
.	8cc#/J)	.	.
*	*v	*v	*
=100	=100	=100
*^	*^	*
*	*	*	*^	*
(2B/	2r	1b	(4g#/	2.e\	.
.	.	.	4gn/	.	.
4A#/	2BB\	.	2f#/)	.	.
4An/)	.	.	.	4d#\	.
*v	*v	*	*	*	*
*	*	*v	*v	*
=101	=101	=101	=101
4E\ 4G#\	(4.b/	2B\ 2e\	.
(4GG#/	.	.	.
.	16a/LL	.	.
.	16g#/JJ	.	.
4AA/	8f#/L	2c#\	.
.	8e/	.	.
4AA#/)	8d#/	.	.
.	8c#/J)	.	.
=102	=102	=102	=102
*^	*	*	*
*	*^	*	*	*
4G#/	1BB	2r	1B	2.E/	>
4Gn/	.	.	.	.	.
2F#/	.	2BBB\	.	.	.
.	.	.	.	4D#/	pp
*	*v	*v	*	*	*
*	*	*v	*v	*
=103	=103	=103	=103
2E/ 2Gn/	16r	1r	.
.	16CCn\LL	.	.
.	16DDn\	.	.
.	16EE\JJ	.	.
.	16FFn\LL	.	.
.	16GGn\	.	.
.	16AA\	.	.
.	16BB\JJ	.	.
2E/ 2G/ 2cn/	8Cn\L	.	.
.	8C\	.	.
.	8C\	.	.
.	8C\J	.	.
=104	=104	=104	=104
2Dn/ 2Fn/ 2B/	16r	2r	.
.	16CCn\LL	.	.
.	16DDn\	.	.
.	16EE\JJ	.	.
.	16FFn\LL	.	.
.	16GGn\	.	.
.	16AA\	.	.
.	16BB\JJ	.	.
2Gn/ 2B/	8Cn\L	2dn/ 2fn/	.
.	8C\	.	.
.	8C\	.	.
.	8C\J	.	.
=105	=105	=105	=105
2Gn/	[1Cn	16r	.
.	.	(16e/LL	<
.	.	16fn/	.
.	.	16gn/JJ	.
.	.	16a\LL	.
.	.	16b\	.
.	.	16ccn\	.
.	.	16ddn\JJ)	.
2cn/	.	8ee'\L	.
.	.	(16ffn\L	.
.	.	16ggn\JJ	.
.	.	16aa\LL	.
.	.	16bb\	.
.	.	16cccn\	.
.	.	16dddn\JJ)	.
=106	=106	=106	=106
1A#	2C\]	4eee'\	f
.	.	16dd#\LL	.
.	.	16ee\	.
.	.	16dd#\	.
.	.	16ee\JJ	.
.	2Cn\	16d#/LL	.
.	.	16e/	.
.	.	16d#/	.
.	.	16e/JJ	.
.	.	16d#/LL	.
.	.	16e/	.
.	.	16gn/	.
.	.	16e/JJ	.
=107	=107	=107	=107
8B/	8BB\L	(4d#/	.
8r	8BB\	.	.
4r	8BB\	4B/)	.
.	8BB\J	.	.
2E/	8BB\L	2A#/ 2c#/ (2gn/	f
.	8BB\	.	.
.	8BB\	.	.
.	8BB\J	.	.
=108	=108	=108	=108
*	*	*^	*
2D#/	8BB\L	4f#/	2B\	.
.	8BB\	.	.	.
.	8BB\	4d#/)	.	.
.	8BB\J	.	.	.
2Gn/	8BB\L	(2a#/	4.c#\	p
.	8BB\	.	.	.
.	8BB\	.	.	.
.	8BB\J	.	16d#\LL	.
.	.	.	16e\JJ)	.
=109	=109	=109	=109	=109
2F#/	8BB\L	2b/	(4d#\	.
.	8BB\	.	.	.
.	8BB\	.	4B\)	.
.	8BB\J	.	.	.
*v	*v	*	*	*
*clefG2	*	*	*
*^	*	*	*
2e/	8B\L	2r	2a#\ 2cc#\ (2ggn\	f
.	8B\	.	.	.
.	8B\	.	.	.
.	8B\J	.	.	.
=110	=110	=110	=110	=110
2d#/	8B\L	4ff#/	2b\	.
.	8B\	.	.	.
.	8B\	4dd#/)	.	.
.	8B\J	.	.	.
2gn/	8B\L	2aa#/	(4.cc#\	p
.	8B\	.	.	.
.	8B\	.	.	.
.	8B\J	.	16dd#\LL	.
.	.	.	16ee\JJ)	.
=111	=111	=111	=111	=111
2f#/	8B\L	2bb/	(4dd#\	.
.	8B\	.	.	.
.	8B\	.	4b\)	.
.	8B\J	.	.	.
2e/ 2gn/	8B\L	2aa#/	4.cc#\ (4.ee\	.
.	8B\	.	.	.
.	8B\	.	.	.
.	8B\J	.	16ff#\LL	.
.	.	.	16ggn\JJ)	.
*v	*v	*	*	*
*	*v	*v	*
=112	=112	=112
4B/ 4d#/ 4f#/	4dd#'\ 4ff#'\ 4bb'\	f
4r	4r	.
*clefF4	*	*
4BB'\ 4D#'\ 4F#'\ 4B'\	4d#'/ 4f#'/ 4b'/	.
4r	4r	.
=113	=113	=113
*^	*	*
4D#'/ 4F#'/ 4B'/	4BBB\ 4BB\	4r	.
4r	4r	4r	.
2r	2r	(8bb\L	p
.	.	8aa\	.
.	.	8gg#\	.
.	.	8ff#\J)	.
*v	*v	*	*
=114	=114	=114
1r	2ee\	.
.	(4ff#'\	.
.	4ff##'\	.
=115	=115	=115
1r	4gg#'\	.
.	4aa'\	.
.	4aa#'\	.
.	4bb'\)	.
=116	=116	=116
*	*^	*
2r	(4bb#/	2r	.
.	2ccc#/	.	<
*clefG2	*	*	*
2e#/ (2g#/	.	[2cc#\	.
.	[4bbn/)	.	.
=117	=117	=117	=117
2f#/ 2a/)	2cc#\]	4bb/]	>
.	.	4aa/	.
2r	8aa\L	2r	.
.	8gg#\	.	.
.	8ff#\	.	.
.	8ee\J	.	.
*	*v	*v	*
=118	=118	=118
1r	2dd#\	.
.	(4ee'\	.
.	4ee#'\	.
=119	=119	=119
1r	4ff#'\	.
.	4ff##'\	.
.	4gg#\	.
.	4aa'\)	.
=120	=120	=120
*	*^	*
2r	(4aa#/	2r	.
.	2bb/	.	.
2d#/ (2f#/	.	[2b\	.
.	[4aan/)	.	.
=121	=121	=121	=121
2e/ 2g#/)	4aa/]	2b\]	.
.	4gg#/	.	.
(8b/L	2r	2r	p
8a/	.	.	.
8g#/	.	.	.
8f#/J	.	.	.
*	*v	*v	*
=122	=122	=122
2e/	2r	.
*	*clefF4	*clefF4
4f#/	8B\L	p
.	8A\	.
4g#/	8G#\	.
.	8F#\J	.
=123	=123	=123
4a/	4E#\	.
4a#/	4r	.
*	*clefG2	*clefG2
4b/	8bb\L	.
.	8aa\	.
[4b#/)	8gg#\	.
.	8ff#\J	.
=124	=124	=124
*^	*	*
(4b#/]	1c#	2ee#\	.
2cc#/	.	.	.
.	.	[2ee#\ [2gg#\ [2dddn\	<
[4bn/)	.	.	.
=125	=125	=125	=125
(4b/]	2f#\	4ee#\] 4gg#\] 4ddd\]	>
4an/)	.	4ff#\ 4aa\ 4ccc#\	.
(8a/L	2r	2r	.
8g#/	.	.	.
8f#/	.	.	.
8e/J	.	.	.
*v	*v	*	*
*	*clefF4	*clefF4
=126	=126	=126
2d#/	2r	.
4e/	8A\L	.
.	8G#\	.
4f#/	8F#\	.
.	8E\J	.
=127	=127	=127
4f##/	4D#\	.
4g#/	4r	.
*	*clefG2	*clefG2
4a/	8aa\L	.
.	8gg#\	.
[4a#/)	8ff#\	.
.	8ee\J	.
=128	=128	=128
*^	*	*
(4a#/]	1B	2dd#\	<
2b/	.	.	.
.	.	[2dd#\ [2ff#\ [2cccn\	.
[4an/)	.	.	.
=129	=129	=129	=129
*	*	*^	*
(4a/]	2e\	2.r	4dd#\] 4ff#\] (4cccn\]	>
4g#/)	.	.	4ee\ 4gg#\ 4bb\)	p
*v	*v	*	*	*
*clefF4	*	*	*
*^	*	*	*
(8G#\L	2r	.	4r	.
8B\	.	.	.	.
8G#\	.	4b'/	4e\	.
8B\J)	.	.	.	.
*v	*v	*	*	*
=130	=130	=130	=130
(8A\L	4.b/	(2d#\	.
8B\	.	.	.
8A\	.	.	.
8B\J)	8dd#/	.	.
(8G#\L	4ee'/	4e\)	.
8B\	.	.	.
8G#\	4b/	4e\	.
8B\J)	.	.	.
=131	=131	=131	=131
8A\L	(4.b/	2d#\	.
8B\	.	.	.
8A\	.	.	.
8B\J	8dd#/)	.	.
8G#\L	4ee'/	4e\	.
8B\	.	.	.
8G#\	(4ee#/	4e#\	.
8B\J	.	.	.
*	*v	*v	*
=132	=132	=132
(8A\L	4f#\ 4ff#\	.
8c#\	.	.
8A\	4g#\ 4gg#\	.
8c#\J)	.	.
(8B\L	4a\ 4aa\	.
8d#\	.	.
8B\	4b\ 4bb\)	.
8d#\J)	.	.
=133	=133	=133
*^	*	*
8E/L	2.E\	2a\ (2aa\	.
8B/	.	.	.
8d#/	.	.	.
8B/J	.	.	.
8e/L	.	4g#\ 4gg#\)	.
8B/	.	.	.
8e/	4G#\	4b\ 4bb\	.
8B/J	.	.	.
=134	=134	=134	=134
*	*	*^	*
(2f#/	8A\L	(4.bb/	2dd#\	<
.	8B\	.	.	.
.	8A\	.	.	.
.	8B\J	8ddd#/)	.	.
4e/)	8G#\L	4eee'/	4ee\	.
.	8B\	.	.	.
4e/	8G#\	4bb'/	4b\	>
.	8B\J	.	.	.
=135	=135	=135	=135	=135
2f#/	8A\L	4.bb/	(2dd#\	<
.	8B\	.	.	.
.	8A\	.	.	.
.	8B\J	8ddd#/	.	.
8e/L	4G#\	4eee'/	4ee\)	.
8B/	.	.	.	.
8e#/	4G#\	(4dddn/	4ee#\	>
8B/J	.	.	.	.
=136	=136	=136	=136	=136
4f#/	8A\L	4ccc#/	4ff#\	.
.	8c#\	.	.	.
4r	8A\	4gg#/	4g#\	.
.	8c#\J	.	.	.
8F#/L	4BB\	4aa/	4a\	.
8A/	.	.	.	.
8F#/	4BB\	4dd#/)	4d#\	.
8A/J	.	.	.	.
=137	=137	=137	=137	=137
4G#/	4E\	(4ee/	2.e\	.
4r	2.r	4g#/ 4b/	.	.
4r	.	[2a/ [2ccn/)	.	.
8r	.	.	(4d#\	.
24BB/LL	.	.	.	.
24C#/	.	.	.	.
24D#/JJ	.	.	.	.
*v	*v	*	*	*
*	*v	*v	*
=138	=138	=138
*	*^	*
4E\	4a/] 4cc/]	2.e\)	f
4r	4g#/ 4b/	.	.
4r	[2a/ [2cc#/	.	.
8r	.	(4d#\	.
24BBB/LL	.	.	.
24CC#/	.	.	.
24DD#/JJ	.	.	.
*	*v	*v	*
=139	=139	=139
*	*^	*
4EE/	4a/] (4cc#/]	2.e\)	f
4r	4g#/ 4b/	.	.
4r	[2a/ [2ccn/)	.	.
8r	.	(4d#\	.
24BB/LL	.	.	.
24C#/	.	.	.
24D#/JJ	.	.	.
*	*v	*v	*
=140	=140	=140
*	*^	*
4E\	4a/] 4ccn/]	2.e\)	f
4r	4g#/ 4b/	.	.
4r	[2a/ [2cc#/	.	.
8r	.	(4d#\	.
24BBB/LL	.	.	.
24CC#/	.	.	.
24DD#/JJ	.	.	.
*	*v	*v	*
=141	=141	=141
*	*^	*
4EE/	4a/] 4cc#/]	4e\)	f
4E'\ 4B'\	2.r	4g#'\ 4b'\	p
4F#'\ 4B'\	.	4a'\ 4dd#'\	.
4G#'\ 4B'\	.	4b'\ 4ee'\	.
=142	=142	=142	=142
2A\ 2c#\ 2f#\	(4.gg#/	2a\ 2cc#\	.
.	8ff#/)	.	.
4B'\ 4g#'\	4ee'/	4b\	.
4B'\ 4f#'\	4dd#'/	4b\	.
=143	=143	=143	=143
4r	4r	4b\	<
4G#'\ 4B'\	4ee'/	4b\	.
4F#'\ 4d#'\	4ff#'/	4b\	.
4E'\ 4e'\	4gg#'/	4b\	.
=144	=144	=144	=144
*^	*	*	*
(4.g#/	2A\	(4.bb/	2cc#\	.
8f#/)	.	8aa/)	.	.
4e'/	4B''\	4gg#'/	4b\	.
4d#'/	4B\	4ff#'/	4b\	.
*v	*v	*	*	*
*	*v	*v	*
=145	=145	=145
4r	4b'\ 4bb'\	ff
4G#'\ 4B'\ 4e'\	4b'\ 4ee'\ 4bb'\	.
4F#'\ 4A'\ 4d#'\	4b'\ 4dd#'\ 4ff#'\ 4bb'\	.
4E'\ 4G#'\ 4B'\ 4e'\	4b'\ 4ee'\ 4gg#'\ 4bb'\	.
=146	=146	=146
4AA\ 4C#\ 4F#\ 4A\	4b#\ (4bb#\	.
4r	4cc#'\ 4ccc#'\)	.
2r	2r	.
=147	=147	=147
4BBB'/ 4BB'/	4r	.
*	*clefF4	*clefF4
4r	4A'\ 4d#'\	p
2r	2r	.
=148	=148	=148
(2EE/	8r	.
.	8E\ 8G#\ 8e\L	pp
.	8E\ 8G#\ 8e\	.
.	8E\ 8G#\ 8e\J	.
2AA/	8r	.
.	8E\ 8c#\ 8e\L	.
.	8E\ 8c#\ 8e\	.
.	8E\ 8c#\ 8e\J	.
=149	=149	=149
2GG#/	8r	.
.	8E\ 8B\ 8e\L	.
.	8E\ 8B\ 8e\	.
.	8E\ 8B\ 8e\J	.
2C#/)	8r	.
.	8E\ 8A\ 8e\L	.
.	8E\ 8A\ 8e\	.
.	8E\ 8A\ 8e\J	.
=150	=150	=150
(2BB/	8r	.
.	8E\ 8G#\ 8e\L	.
.	8E\ 8G#\ 8e\	.
.	8E\ 8G#\ 8e\J	.
2AA/	8r	.
.	8E\ 8c#\ 8e\L	.
.	8E\ 8c#\ 8e\	.
.	8E\ 8c#\ 8e\J	.
=151	=151	=151
2GG#/)	8r	.
.	8E\ 8B\ 8e\L	.
.	8E\ 8B\ 8e\	.
.	8E\ 8B\ 8e\J	.
(2FFFn/ 2FFn/	8r	.
.	8E\ 8A\ 8d#\ 8e\L	.
.	8E\ 8A\ 8d#\ 8e\	.
.	8E\ 8A\ 8d#\ 8e\J	.
=152	=152	=152
2EEE/) 2EE/	8r	.
.	8E\ 8G#\ 8e\L	.
.	8E\ 8G#\ 8e\	.
.	8E\ 8G#\ 8e\J	.
(2FFF#/ 2FF#/	8r	.
.	8E\ 8A\ 8d#\ 8e\L	.
.	8E\ 8A\ 8d#\ 8e\	.
.	8E\ 8A\ 8d#\ 8e\J	.
=153	=153	=153
2EEE/) 2EE/	8r	.
.	8E\ 8G#\ 8e\L	.
.	8E\ 8G#\ 8e\	.
.	8E\ 8G#\ 8e\J	.
(2FFFn/ 2FFn/	8r	.
.	8E\ 8A\ 8d#\ 8e\L	.
.	8E\ 8A\ 8d#\ 8e\	.
.	8E\ 8A\ 8d#\ 8e\J	.
=154	=154	=154
2EEE/) 2EE/	8r	.
.	8E\ 8G#\ 8e\L	.
.	8E\ 8G#\ 8e\	.
.	8E\ 8G#\ 8e\J	.
2FFF#/ 2FF#/	8r	.
.	8E\ 8A\ 8d#\ 8e\L	.
.	8E\ 8A\ 8d#\ 8e\	.
.	8E\ 8A\ 8d#\ 8e\J	.
*	*clefG2	*clefG2
=155	=155	=155
*	*^	*
8r	(2e/	8r	.
8EE/L	.	8G#\ 8B\L	p
8EE/	.	8G#\ 8B\	.
8EE/J	.	8G#\ 8B\J	.
8r	2a/	8r	.
8EE/ 8D#/L	.	8B\ 8f#\L	.
8EE/ 8D#/	.	8B\ 8f#\	.
8EE/ 8D#/J	.	8B\ 8f#\J	.
=156	=156	=156	=156
8r	2g#/	8r	.
8EE/ 8E/L	.	8B\ 8e\L	.
8EE/ 8E/	.	8B\ 8e\	.
8EE/ 8E/J	.	8B\ 8e\J	.
8r	2dd#/)	8r	.
8EE/ 8AA/ 8F#/L	.	8d#\ 8b\L	.
8EE/ 8AA/ 8F#/	.	8d#\ 8b\	.
8EE/ 8AA/ 8F#/J	.	8d#\ 8b\J	.
=157	=157	=157	=157
8r	(2ee/	8r	.
8EE/ 8GG#/ 8E/L	.	8e\ 8b\L	.
8EE/ 8GG#/ 8E/	.	8e\ 8b\	.
8EE/ 8GG#/ 8E/J	.	8e\ 8b\J	.
8r	2aa/	8r	.
8EE/ 8D#/L	.	8b\ 8ff#\L	.
8EE/ 8D#/	.	8b\ 8ff#\	.
8EE/ 8D#/J	.	8b\ 8ff#\J	.
=158	=158	=158	=158
8r	2gg#/	8r	.
8EE/ 8E/L	.	8b\ 8ee\L	.
8EE/ 8E/	.	8b\ 8ee\	.
8EE/ 8E/J	.	8b\ 8ee\J	.
8r	2ddd#/)	8r	.
8EE/ 8AA/ 8F#/L	.	8dd#\ 8bb\L	.
8EE/ 8AA/ 8F#/	.	8dd#\ 8bb\	.
8EE/ 8AA/ 8F#/J	.	8dd#\ 8bb\J	.
=159	=159	=159	=159
8r	(2eee/	8r	>
8EE/ 8GG#/ 8E/L	.	8ee\ 8bb\L	.
8EE/ 8GG#/ 8E/	.	8ee\ 8bb\	.
8EE/ 8GG#/ 8E/J	.	8ee\ 8bb\J	.
8r	2ddd#/	8r	.
8EE/ 8AA/ 8F#/L	.	8dd#\ 8bb\L	.
8EE/ 8AA/ 8F#/	.	8dd#\ 8bb\	.
8EE/ 8AA/ 8F#/J	.	8dd#\ 8bb\J	.
=160	=160	=160	=160
8r	2eee/	8r	.
8EE/ 8GG#/ 8E/L	.	8ee\ 8bb\L	.
8EE/ 8GG#/ 8E/	.	8ee\ 8bb\	.
8EE/ 8GG#/ 8E/J	.	8ee\ 8bb\J	.
8r	2ddd#/)	8r	.
8EE/ 8AA/ 8F#/L	.	8dd#\ 8bb\L	.
8EE/ 8AA/ 8F#/	.	8dd#\ 8bb\	.
8EE/ 8AA/ 8F#/J	.	8dd#\ 8bb\J	.
=161	=161	=161	=161
8r	2eee/	8r	pp
8EE/ 8GG#/ 8BB/ 8E/L	.	8ee\ 8gg#\ 8bb\L	.
8EE/ 8GG#/ 8BB/ 8E/	.	8ee\ 8gg#\ 8bb\	.
8EE/ 8GG#/ 8BB/ 8E/J	.	8ee\ 8gg#\ 8bb\J	.
8r	2eee/	8r	.
8EE/ 8GG#/ 8BB/ 8E/L	.	8ee\ 8gg#\ 8bb\L	.
8EE/ 8GG#/ 8BB/ 8E/	.	8ee\ 8gg#\ 8bb\	.
8EE/ 8GG#/ 8BB/ 8E/J	.	8ee\ 8gg#\ 8bb\J	.
=162	=162	=162	=162
4r	2eee/	4r	.
4EE/ 4GG#/ 4BB/ 4E/	.	4ee\ 4gg#\ 4bb\	.
2r	2r	2r	.
*	*v	*v	*
==	==	==
*-	*-	*-
!!!ENC: Craig Stuart Sapp
!!!END: 2008/02/10/
